X: 32018
T: Peerie Willie
R: reel
M: 4/4
K: Gminor
DC|B,2DF BDFB|dfba gfed|c2Gc edcB|ABcB AFEC|
B,2DF BDFB|dfba gfed|edcB Afec|AFEC B,2:|
|:cB|A2FA cFAc|fecA FECA,|B,2DF BDFB|bfdB FDB,f|
=e2ce gceg|bg=ec BG=EC|AFBG cAdB|=eceg f2:|

